apps/scalable/minitube.svg

<svg xmlns="http://www.w3.org/2000/svg" style="isolation:isolate" width="256" height="256"><defs><filter id="a" width="270.648" height="254.338" x="-7.32" y="2.95" filterUnits="userSpaceOnUse"><feGaussianBlur xmlns="http://www.w3.org/2000/svg" in="SourceGraphic" stdDeviation="4.294"/><feOffset xmlns="http://www.w3.org/2000/svg" dy="4" result="pf_100_offsetBlur"/><feFlood xmlns="http://www.w3.org/2000/svg" flood-opacity=".4"/><feComposite xmlns="http://www.w3.org/2000/svg" in2="pf_100_offsetBlur" operator="in" result="pf_100_dropShadow"/><feBlend xmlns="http://www.w3.org/2000/svg" in="SourceGraphic" in2="pf_100_dropShadow"/></filter></defs><path fill="#BC1938" d="M165.685 11.947c74.055 0 84.639 10.557 84.639 84.544v59.251c0 73.986-10.584 84.543-84.639 84.543h-75.37c-74.055 0-84.639-10.557-84.639-84.543V96.491c0-73.987 10.584-84.544 84.639-84.544h75.37z" filter="url(#a)"/><g opacity=".4"><linearGradient id="b" x1=".517" x2=".517" y2="1"><stop offset="0%" stop-color="#fff"/><stop offset="12.5%" stop-opacity=".098" stop-color="#fff"/><stop offset="92.5%" stop-opacity=".098"/><stop offset="100%" stop-opacity=".498"/></linearGradient><path fill="none" stroke="url(#b)" stroke-linecap="round" stroke-linejoin="round" stroke-width="4.077" d="M165.685 11.947c74.055 0 84.639 10.557 84.639 84.544v59.251c0 73.986-10.584 84.543-84.639 84.543h-75.37c-74.055 0-84.639-10.557-84.639-84.543V96.491c0-73.987 10.584-84.544 84.639-84.544h75.37z" vector-effect="non-scaling-stroke"/></g><path fill="#EBEBEB" d="M205.637 60.442h21.953c2.128 0 4.216 1.691 4.658 3.773 1.865 8.783 1.875 21.571-.023 30.783-.43 2.085-2.507 3.778-4.635 3.778h-21.953c-2.129 0-4.158-1.702-4.529-3.798-1.55-8.758-1.54-21.526.025-30.733.357-2.099 2.375-3.803 4.504-3.803zM205.637 104.442h21.953c2.128 0 4.216 1.691 4.658 3.773 1.865 8.783 1.875 21.571-.023 30.783-.43 2.085-2.507 3.778-4.635 3.778h-21.953c-2.129 0-4.158-1.702-4.529-3.798-1.55-8.758-1.54-21.526.025-30.733.357-2.099 2.375-3.803 4.504-3.803z"/><path fill="#323232" d="M202.525 154.609h28.718a2.33 2.33 0 0 1 2.329 2.329v3.967a2.33 2.33 0 0 1-2.329 2.329h-28.718a2.33 2.33 0 0 1-2.328-2.329v-3.967a2.33 2.33 0 0 1 2.328-2.329zM202.525 171.609h28.718a2.33 2.33 0 0 1 2.329 2.329v3.967a2.33 2.33 0 0 1-2.329 2.329h-28.718a2.33 2.33 0 0 1-2.328-2.329v-3.967a2.33 2.33 0 0 1 2.328-2.329zM202.525 188.609h28.718a2.33 2.33 0 0 1 2.329 2.329v3.967a2.33 2.33 0 0 1-2.329 2.329h-28.718a2.33 2.33 0 0 1-2.328-2.329v-3.967a2.33 2.33 0 0 1 2.328-2.329z"/><defs><filter id="c" width="162.019" height="151.218" x="22.35" y="52.39" filterUnits="userSpaceOnUse"><feOffset xmlns="http://www.w3.org/2000/svg" in="SourceGraphic"/><feGaussianBlur xmlns="http://www.w3.org/2000/svg" result="pf_100_offsetBlur" stdDeviation="4.294"/><feComposite xmlns="http://www.w3.org/2000/svg" in="SourceGraphic" in2="pf_100_offsetBlur" operator="out" result="pf_100_inverse"/><feFlood xmlns="http://www.w3.org/2000/svg" flood-opacity=".4" result="pf_100_color"/><feComposite xmlns="http://www.w3.org/2000/svg" in="pf_100_color" in2="pf_100_inverse" operator="in" result="pf_100_shadow"/><feComposite xmlns="http://www.w3.org/2000/svg" in="pf_100_shadow" in2="SourceGraphic"/></filter></defs><path fill="#333" d="M128.319 52.391c49.044 0 56.053 6.991 56.053 55.989v39.24c0 48.997-7.009 55.989-56.053 55.989H78.405c-49.044 0-56.053-6.992-56.053-55.989v-39.24c0-48.998 7.009-55.989 56.053-55.989h49.914z" filter="url(#c)"/><defs><filter id="d" width="120.24" height="126.875" x="39.85" y="68.14" filterUnits="userSpaceOnUse"><feGaussianBlur xmlns="http://www.w3.org/2000/svg" stdDeviation="9.064"/></filter></defs><g opacity=".4" filter="url(#d)"><linearGradient id="e" x1=".455" x2=".455" y2=".988" gradientTransform="matrix(78.019 0 0 84.654 60.963 89.253)" gradientUnits="userSpaceOnUse"><stop offset="0%" stop-opacity="0"/><stop offset="50.477%"/><stop offset="100%" stop-opacity="0"/></linearGradient><path fill="url(#e)" d="M60.963 89.253v84.654s42.935-17.353 78.019-42.353c0-.008-.004-.014-.009-.023a.2.2 0 0 0-.016-.028.22.22 0 0 1-.018-.028.058.058 0 0 1-.009-.026c-37.006-25.798-77.967-42.195-77.967-42.195v-.001z"/></g><defs><filter id="f" width="83.297" height="89.932" x="58.32" y="86.61" filterUnits="userSpaceOnUse"><feGaussianBlur xmlns="http://www.w3.org/2000/svg" stdDeviation="1.133"/></filter></defs><path d="M60.963 89.253v84.654s42.935-17.353 78.019-42.353c0-.008-.004-.014-.009-.023a.2.2 0 0 0-.016-.028.22.22 0 0 1-.018-.028.058.058 0 0 1-.009-.026c-37.006-25.798-77.967-42.195-77.967-42.195v-.001z" opacity=".1" filter="url(#f)"/><linearGradient id="g" x1=".545" x2=".545" y1=".004" y2="1.003" gradientTransform="matrix(78.02 0 0 84.654 60.962 88.548)" gradientUnits="userSpaceOnUse"><stop offset="0%" stop-color="#f4afaf"/><stop offset="100%" stop-color="#fff"/></linearGradient><path fill="url(#g)" d="M60.963 88.548v84.654s42.935-17.353 78.019-42.354c0-.007-.004-.011-.009-.022a.113.113 0 0 0-.016-.027l-.018-.026c-.005-.012-.009-.019-.009-.027-37.007-25.797-77.968-42.194-77.968-42.194l.001-.004z"/><path fill="#FFF" d="M60.962 88.548v.705s40.683 16.282 77.562 41.917l.458-.322c0-.007-.004-.011-.009-.022-.004-.012-.01-.019-.016-.027l-.018-.026c-.005-.012-.009-.019-.009-.027-37.007-25.796-77.968-42.194-77.968-42.194v-.004z"/></svg>

<svg xmlns="http://www.w3.org/2000/svg" style="isolation:isolate" width="256" height="256" viewBox="0 0 256 256">
 <defs>
  <filter id="eQAB960muHdfYHYeveRL0AbZ7pNTuHFB" width="270.648" height="254.338" x="-7.32" y="2.95" filterUnits="userSpaceOnUse">
   <feGaussianBlur xmlns="http://www.w3.org/2000/svg" in="SourceGraphic" stdDeviation="4.294"/>
   <feOffset xmlns="http://www.w3.org/2000/svg" dx="0" dy="4" result="pf_100_offsetBlur"/>
   <feFlood xmlns="http://www.w3.org/2000/svg" flood-opacity=".4"/>
   <feComposite xmlns="http://www.w3.org/2000/svg" in2="pf_100_offsetBlur" operator="in" result="pf_100_dropShadow"/>
   <feBlend xmlns="http://www.w3.org/2000/svg" in="SourceGraphic" in2="pf_100_dropShadow" mode="normal"/>
  </filter>
 </defs>
 <g filter="url(#eQAB960muHdfYHYeveRL0AbZ7pNTuHFB)">
  <path fill="#BC1938" d="M 165.685 11.947 C 239.74 11.947 250.324 22.504 250.324 96.491 L 250.324 155.742 C 250.324 229.728 239.74 240.285 165.685 240.285 L 90.315 240.285 C 16.26 240.285 5.676 229.728 5.676 155.742 L 5.676 96.491 C 5.676 22.504 16.26 11.947 90.315 11.947 L 165.685 11.947 Z"/>
 </g>
 <g opacity=".4">
  <linearGradient id="_lgradient_282" x1=".517" x2=".517" y1="0" y2="1">
   <stop offset="0%" style="stop-color:rgb(255,255,255)"/>
   <stop offset="12.5%" stop-opacity=".098" style="stop-color:rgb(255,255,255)"/>
   <stop offset="92.5%" stop-opacity=".098" style="stop-color:rgb(0,0,0)"/>
   <stop offset="100%" stop-opacity=".498" style="stop-color:rgb(0,0,0)"/>
  </linearGradient>
  <path fill="none" stroke="url(#_lgradient_282)" stroke-linecap="round" stroke-linejoin="round" stroke-width="4.077" d="M 165.685 11.947 C 239.74 11.947 250.324 22.504 250.324 96.491 L 250.324 155.742 C 250.324 229.728 239.74 240.285 165.685 240.285 L 90.315 240.285 C 16.26 240.285 5.676 229.728 5.676 155.742 L 5.676 96.491 C 5.676 22.504 16.26 11.947 90.315 11.947 L 165.685 11.947 Z" vector-effect="non-scaling-stroke"/>
 </g>
 <g>
  <path fill="#EBEBEB" d="M 205.637 60.442 L 227.59 60.442 C 229.718 60.442 231.806 62.133 232.248 64.215 C 234.113 72.998 234.123 85.786 232.225 94.998 C 231.795 97.083 229.718 98.776 227.59 98.776 L 205.637 98.776 C 203.508 98.776 201.479 97.074 201.108 94.978 C 199.558 86.22 199.568 73.452 201.133 64.245 C 201.49 62.146 203.508 60.442 205.637 60.442 Z"/>
  <path fill="#EBEBEB" d="M 205.637 104.442 L 227.59 104.442 C 229.718 104.442 231.806 106.133 232.248 108.215 C 234.113 116.998 234.123 129.786 232.225 138.998 C 231.795 141.083 229.718 142.776 227.59 142.776 L 205.637 142.776 C 203.508 142.776 201.479 141.074 201.108 138.978 C 199.558 130.22 199.568 117.452 201.133 108.245 C 201.49 106.146 203.508 104.442 205.637 104.442 Z"/>
  <path fill="#323232" d="M 202.525 154.609 L 231.243 154.609 C 232.528 154.609 233.572 155.653 233.572 156.938 L 233.572 160.905 C 233.572 162.191 232.528 163.234 231.243 163.234 L 202.525 163.234 C 201.24 163.234 200.197 162.191 200.197 160.905 L 200.197 156.938 C 200.197 155.653 201.24 154.609 202.525 154.609 Z"/>
  <path fill="#323232" d="M 202.525 171.609 L 231.243 171.609 C 232.528 171.609 233.572 172.653 233.572 173.938 L 233.572 177.905 C 233.572 179.191 232.528 180.234 231.243 180.234 L 202.525 180.234 C 201.24 180.234 200.197 179.191 200.197 177.905 L 200.197 173.938 C 200.197 172.653 201.24 171.609 202.525 171.609 Z"/>
  <path fill="#323232" d="M 202.525 188.609 L 231.243 188.609 C 232.528 188.609 233.572 189.653 233.572 190.938 L 233.572 194.905 C 233.572 196.191 232.528 197.234 231.243 197.234 L 202.525 197.234 C 201.24 197.234 200.197 196.191 200.197 194.905 L 200.197 190.938 C 200.197 189.653 201.24 188.609 202.525 188.609 Z"/>
  <defs>
   <filter id="e6ZE0dfJeob1WK3VgUJWdlrvcJsTE0bq" width="162.019" height="151.218" x="22.35" y="52.39" filterUnits="userSpaceOnUse">
    <feOffset xmlns="http://www.w3.org/2000/svg" dx="0" dy="0" in="SourceGraphic"/>
    <feGaussianBlur xmlns="http://www.w3.org/2000/svg" result="pf_100_offsetBlur" stdDeviation="4.294"/>
    <feComposite xmlns="http://www.w3.org/2000/svg" in="SourceGraphic" in2="pf_100_offsetBlur" operator="out" result="pf_100_inverse"/>
    <feFlood xmlns="http://www.w3.org/2000/svg" flood-opacity=".4" result="pf_100_color"/>
    <feComposite xmlns="http://www.w3.org/2000/svg" in="pf_100_color" in2="pf_100_inverse" operator="in" result="pf_100_shadow"/>
    <feComposite xmlns="http://www.w3.org/2000/svg" in="pf_100_shadow" in2="SourceGraphic" operator="over"/>
   </filter>
  </defs>
  <g filter="url(#e6ZE0dfJeob1WK3VgUJWdlrvcJsTE0bq)">
   <path fill="#333333" d="M 128.319 52.391 C 177.363 52.391 184.372 59.382 184.372 108.38 L 184.372 147.62 C 184.372 196.617 177.363 203.609 128.319 203.609 L 78.405 203.609 C 29.361 203.609 22.352 196.617 22.352 147.62 L 22.352 108.38 C 22.352 59.382 29.361 52.391 78.405 52.391 L 128.319 52.391 Z"/>
  </g>
  <g>
   <defs>
    <filter id="hCAXW3j1uCh3z85j3u5N1e9gLGaVgQ3O" width="120.24" height="126.875" x="39.85" y="68.14" filterUnits="userSpaceOnUse">
     <feGaussianBlur xmlns="http://www.w3.org/2000/svg" stdDeviation="9.064"/>
    </filter>
   </defs>
   <g opacity=".4" filter="url(#hCAXW3j1uCh3z85j3u5N1e9gLGaVgQ3O)">
    <linearGradient id="_lgradient_283" x1=".455" x2=".455" y1="0" y2=".988" gradientTransform="matrix(78.019,0,0,84.654,60.963,89.253)" gradientUnits="userSpaceOnUse">
     <stop offset="0%" stop-opacity="0" style="stop-color:rgb(0,0,0)"/>
     <stop offset="50.477%" style="stop-color:rgb(0,0,0)"/>
     <stop offset="100%" stop-opacity="0" style="stop-color:rgb(0,0,0)"/>
    </linearGradient>
    <path fill="url(#_lgradient_283)" d="M 60.963 89.253 L 60.963 173.907 C 60.963 173.907 103.898 156.554 138.982 131.554 C 138.982 131.546 138.978 131.54 138.973 131.531 C 138.969 131.522 138.963 131.512 138.957 131.503 C 138.95 131.494 138.944 131.484 138.939 131.475 C 138.934 131.466 138.93 131.457 138.93 131.449 C 101.924 105.651 60.963 89.254 60.963 89.254 L 60.963 89.253 Z"/>
   </g>
   <defs>
    <filter id="unf4luNtkAjGIl61KBGDAbbHqJiOvp77" width="83.297" height="89.932" x="58.32" y="86.61" filterUnits="userSpaceOnUse">
     <feGaussianBlur xmlns="http://www.w3.org/2000/svg" stdDeviation="1.133"/>
    </filter>
   </defs>
   <g opacity=".1" filter="url(#unf4luNtkAjGIl61KBGDAbbHqJiOvp77)">
    <path d="M 60.963 89.253 L 60.963 173.907 C 60.963 173.907 103.898 156.554 138.982 131.554 C 138.982 131.546 138.978 131.54 138.973 131.531 C 138.969 131.522 138.963 131.512 138.957 131.503 C 138.95 131.494 138.944 131.484 138.939 131.475 C 138.934 131.466 138.93 131.457 138.93 131.449 C 101.924 105.651 60.963 89.254 60.963 89.254 L 60.963 89.253 Z"/>
   </g>
   <linearGradient id="_lgradient_284" x1=".545" x2=".545" y1=".004" y2="1.003" gradientTransform="matrix(78.02,0,0,84.654,60.962,88.548)" gradientUnits="userSpaceOnUse">
    <stop offset="0%" style="stop-color:rgb(244,175,175)"/>
    <stop offset="100%" style="stop-color:rgb(255,255,255)"/>
   </linearGradient>
   <path fill="url(#_lgradient_284)" d="M 60.963 88.548 L 60.963 173.202 C 60.963 173.202 103.898 155.849 138.982 130.848 C 138.982 130.841 138.978 130.837 138.973 130.826 C 138.968 130.814 138.963 130.807 138.957 130.799 C 138.95 130.788 138.943 130.78 138.939 130.773 C 138.934 130.761 138.93 130.754 138.93 130.746 C 101.923 104.949 60.962 88.552 60.962 88.552 L 60.963 88.548 Z"/>
   <path fill="#FFFFFF" d="M 60.962 88.548 L 60.962 89.253 C 60.962 89.253 101.645 105.535 138.524 131.17 C 138.677 131.062 138.83 130.956 138.982 130.848 C 138.982 130.841 138.978 130.837 138.973 130.826 C 138.969 130.814 138.963 130.807 138.957 130.799 C 138.95 130.788 138.944 130.78 138.939 130.773 C 138.934 130.761 138.93 130.754 138.93 130.746 C 101.923 104.95 60.962 88.552 60.962 88.552 L 60.962 88.548 Z"/>
  </g>
 </g>
</svg>
